assets/icons/functional/design/align-top.svg

<svg width="32" height="32" viewBox="0 0 32 32" fill="none" xmlns="http://www.w3.org/2000/svg"><g id="Icon-AlignTop"><g clip-path="url(#clip0_8_1705)"><g id="size=md (32px)"><g id="AlignTop"><path id="Vector" d="M27 5H5" stroke="#101828" stroke-width="2" stroke-linecap="round" stroke-linejoin="round"/><path id="Vector_2" d="M25 22V10C25 9.44772 24.5523 9 24 9H19C18.4477 9 18 9.44772 18 10V22C18 22.5523 18.4477 23 19 23H24C24.5523 23 25 22.5523 25 22Z" stroke="#101828" stroke-width="2" stroke-linecap="round" stroke-linejoin="round"/><path id="Vector_3" d="M13 9H8C7.44772 9 7 9.44772 7 10V27C7 27.5523 7.44772 28 8 28H13C13.5523 28 14 27.5523 14 27V10C14 9.44772 13.5523 9 13 9Z" stroke="#101828" stroke-width="2" stroke-linecap="round" stroke-linejoin="round"/></g></g></g></g><defs><clipPath id="clip0_8_1705"><rect width="32" height="32" rx="5" fill="white"/></clipPath></defs></svg>

<svg xmlns="http://www.w3.org/2000/svg" width="32" height="32" fill="none"><path stroke="#101828" stroke-linecap="round" stroke-linejoin="round" stroke-width="2" d="M27 5H5m20 17V10a1 1 0 0 0-1-1h-5a1 1 0 0 0-1 1v12a1 1 0 0 0 1 1h5a1 1 0 0 0 1-1ZM13 9H8a1 1 0 0 0-1 1v17a1 1 0 0 0 1 1h5a1 1 0 0 0 1-1V10a1 1 0 0 0-1-1Z"/></svg>
